icons/electric-vehicle-21.svg

<?xml version="1.0" encoding="UTF-8"?><svg id="point_symbols" xmlns="http://www.w3.org/2000/svg" viewBox="0 0 21 21"><path d="M18.47577,9h-1.43616l-1.13245-2.71289c-.16663-.44012-.47943-.82446-.95032-1.05823l-.62549.78174c.18021.05488.21381.12383.34043.42096l1.08783,2.56842h-3.8198l-1.00281,1.25342c-.22852.28613-.57031.45068-.9375.45068-.18994,0-.37158-.04346-.54053-.12939-.50391-.25439-.76416-.83496-.61865-1.38037l.05188-.19434h-3.65149l1.09125-2.56842c.12701-.40228.20325-.43158.66803-.43158h1.25116c-.1261-.0816-.2417-.18024-.33075-.30566-.14514-.2049-.21234-.44867-.21265-.69434h-.71405c-1.07281,0-1.64209.59857-1.90784,1.28711l-1.13629,2.71289h-1.42542c-.28827,0-.52417.23578-.52417.52417v.47583c0,.55219.44769,1,1,1v6c0,.55219.44769,1,1,1h1c.55231,0,1-.44781,1-1v-1h9v1c0,.55219.44769,1,1,1h1c.55231,0,1-.44781,1-1v-6c.55231,0,1-.44781,1-1v-.47583c0-.28839-.2359-.52417-.52423-.52417ZM5.5,14c-.83112.00238-1.50391-.67041-1.5-1.49951-.00391-.8335.66888-1.50781,1.5-1.50049.82806-.00732,1.50098.66699,1.49951,1.50049.00146.8291-.67145,1.50189-1.49951,1.49951ZM15.50677,14c-.83246.00238-1.50189-.67041-1.50677-1.49951.00488-.8335.67432-1.50781,1.50677-1.50049.81891-.00732,1.48834.66699,1.49323,1.50049-.00488.8291-.67432,1.50189-1.49323,1.49951ZM10,9.50397l1.2016-4.50397h-2.30243l1.4032-4h3.00006l-2.60486,3h3.70563l-4.4032,5.50397Z"/></svg>

<svg xmlns="http://www.w3.org/2000/svg" viewBox="0 0 21 21"><path d="M18.476 9H17.04l-1.133-2.713a1.918 1.918 0 0 0-.95-1.058l-.626.782c.18.055.214.123.34.42L15.76 9h-3.82l-1.003 1.253a1.194 1.194 0 0 1-1.478.322 1.205 1.205 0 0 1-.619-1.38L8.892 9H5.241l1.091-2.568C6.459 6.029 6.535 6 7 6h1.251a1.19 1.19 0 0 1-.33-.306A1.197 1.197 0 0 1 7.707 5h-.714c-1.073 0-1.642.599-1.908 1.287L3.95 9H2.524A.526.526 0 0 0 2 9.524V10a1 1 0 0 0 1 1v6a1 1 0 0 0 1 1h1a1 1 0 0 0 1-1v-1h9v1a1 1 0 0 0 1 1h1a1 1 0 0 0 1-1v-6a1 1 0 0 0 1-1v-.476A.526.526 0 0 0 18.476 9zM5.5 14A1.493 1.493 0 0 1 4 12.5 1.488 1.488 0 0 1 5.5 11 1.491 1.491 0 0 1 7 12.5 1.497 1.497 0 0 1 5.5 14zm10.007 0a1.499 1.499 0 1 1 0-3c.819-.007 1.488.667 1.493 1.5a1.501 1.501 0 0 1-1.493 1.5zM10 9.504L11.202 5H8.899l1.403-4h3l-2.604 3h3.705L10 9.504z"/></svg>
